ultima-forms/img/calendar-icon.svg

<svg width="24" height="24" viewBox="0 0 24 24" fill="none" xmlns="http://www.w3.org/2000/svg">
<path d="M6 10H21V6C21 4.89543 20.1046 4 19 4H5C3.89543 4 3 4.89543 3 6V20C3 21.1046 3.89543 22 5 22H19C20.1046 22 21 21.1046 21 20V13M17 18H13" stroke="#167FB9" stroke-width="1.5" stroke-linecap="round" stroke-linejoin="round"/>
<path d="M16 1V4" stroke="#167FB9" stroke-width="1.5" stroke-linecap="round" stroke-linejoin="round"/>
<path d="M8 1V4" stroke="#167FB9" stroke-width="1.5" stroke-linecap="round" stroke-linejoin="round"/>
</svg>

<svg width="24" height="24" fill="none" xmlns="http://www.w3.org/2000/svg"><path d="M6 10h15V6a2 2 0 0 0-2-2H5a2 2 0 0 0-2 2v14a2 2 0 0 0 2 2h14a2 2 0 0 0 2-2v-7m-4 5h-4M16 1v3M8 1v3" stroke="#167FB9" stroke-width="1.5" stroke-linecap="round" stroke-linejoin="round"/></svg>
